X: 1573
T: Jacko's 1st Kiama Hornpipe
B: australian traditional tunes wiki
M:4/4
L:1/8
R: Step Dance
Q: 1/4=100
K:D
V:1 
G|:"D"dc de fd AF|"G"GA BG"Em"E2AG|"D"FA dc "G"Bg2f|"A7"ed cB AB cA|
"D"dc de fd AF|"G" GA BG"Em"E2AG|"D"FA df "A7"ge cA|"D"d2d2d2g2:|
|:"D"a2f2df af|"G"b2g2e2gb|"D"a2f2d2f2|"A7"ed cB AB cA|
"D"dc de fd AF|"G"GA BG"Em"E2AG|"D"FA dc "A7"Bg cA|"D"d2d2d2z2:|
% abcbook-tune_id 6342d53a5c3d9cb1a470bc0d


% abcbook-boost 0
% abcbook-tablature 
% abcbook-transpose 
% abcbook-lastupdated 1665324371794
% abcbook-soundfonts 
% abcbook-repeats 1
% NFF Book 2010

